X: 100380
M: C
L: 1/8
K: D
uA, |\
(3BGB (3dcB (3cAf (3gfe | (3Bcd (3efg f<dd |]
uf |\
(.a>.f)(d>B) A>FD<F | (.G>.B)(e>f) (g/f/)e/d/ (c/B/)A/G/ |\
f |\
(.a>.f)(d>B) A>FD<F | (.G>.B)(e>f) (g/f/)e/d/ (c/B/)A/G/ |\


